X:1
T:Laus sit Deo
T:Laus sit Deo
T:André Vierendeels (11/09/10)
C:André Vierendeels
C:(11/09/10)
%%score [ 1 2 3 4 ]
L:1/8
Q:1/4=120
M:2/4
K:C
V:1 treble nm="Soprano" snm="S"
V:2 treble nm="Alto" snm="A"
V:3 treble-8 nm="Tenor" snm="T"
V:4 bass nm="Bass" snm="B"
V:1
 A4 |[M:2/2] A4 B4 | c4 B4 | A8 | !fermata!G4 G4 | c4 c4 | d4 d4 | !fermata!e4 d4 | e4 e4 | e4 d4 | %10
w: Laus|sit De-|o pa-|ren-|ti, De-|o ter|op- ti-|mo, laus|sit pa-|ren- tis|
 e8 | !fermata!c4 d4 | e4 e4 | d4 d4 | c4 c4 | d4 c4 | d4 d4 | e8 |"^-natural" !fermata!e4 c4 | %19
w: gna-|to per-|en- nis|u- ni-|co, spi-|ra- mi-|ni- que|sa-|cro con-|
 d4 d4 | c4 B4 | A8 | !fermata!G4 G4 | B4 c4 | d2 d2 d4 | e8 | !fermata!e4 c4 | d4 c4 | B4 A4 | %29
w: di- gna|glo- ri-|a|_ u-|ni De-|o at- que|tri-|no per|cun- cta|sae- cu-|
 !fermata!e8 | c4 c2 c2 | B8 | !fermata!A8 |] %33
w: la.|Ky- ri- e|lei-|son.|
V:2
 E4 |[M:2/2] F4 G4 | C2 D4 E2- | E2 G4 ^F2 | !fermata!D4 E4 | A4 A4 | A4 c2 B2 | !fermata!G4 G4 | %8
w: Laus|sit De-|o pa- ren-||ti, De-|o ter|op- ti- *|mo, laus|
 G4 A4 | c4 G4 | d2 c4 B2 | !fermata!A4 F4 | G4 A4 | ^F4 G4 | E4 F4 | D4 E4 | B4 A4 | ^G2 A4 B2 | %18
w: sit pa-|ren- tis|gna- * *|to per-|en- nis|u- n-|co, spi-|ra- mi-|ni- que|sa- * *|
 !fermata!^c4 E4 | ^F4 G4 | F2 E4 G2 | D2 E^F G2 F2 | !fermata!D4 C4 | G4 A4 | F2 F2 G4 | c8 | %26
w: cro con-|di- gna|glo- * ri-|a _ _ _ _|_ u-|ni De-|o at- que|tri-|
 !fermata!B4 E4 | F4 A4 | D4 E2 A2 | !fermata!^G8 | E4 E2 E2 | E2 FG A2 ^G2 | !fermata!E8 |] %33
w: no per|cun- cta|sae- cu- *|la.|Ky- ri- e|lei- * * * *|son.|
V:3
 c4 |[M:2/2] c2 d4 B2 | G2 G4 B2 | c2 d4 A2 | !fermata!B4 c4 | c4 e4 | d2 e2 f2 d2 | %7
w: Laus|sit De- *|o pa- ren-||ti, De-|o ter|op- * ti- *|
 !fermata!c4 B4 | G4 c4 | G4 B4 | A4 c2 e2 | !fermata!c4 A4 | c4 c4 | A4 G4 | G4 F4 | G4 G4 | %16
w: mo, laus|sit pa-|ren- tis|gna- * *|to per-|en- nis|u- ni-|co, spi-|ra- mi-|
 G4 F4 | B8 | !fermata!e4 A4 | A4 B4 | G6 B2 | d8 | !fermata!B4 e4 | d4 A4 | A2 A2 B4 | G4 A4 | %26
w: ni- que|sa-|cro con-|di- gna|glo- ri-|a|_ u-|ni De-|o at- que|tri- *|
 !fermata!^G4 =G4 | A4 c4 | B4 c4 | !fermata!B8 | G4 A2 A2 | B2 d2 e2 B2 | !fermata!c8 |] %33
w: no per|cun- cta|sae- cu-|la.|Ky- ri- e|lei- * * *|son.|
V:4
 A,4 |[M:2/2] F,2 D,2 G,4 | E,2 G,4 E,2 | C,E, A,4 D,2 | !fermata!G,4 C,4 | F,4 A,,4 | D,4 G,4 | %7
w: Laus|sit De- *|o pa- ren-||ti, De-|o ter|op- ti-|
 !fermata!C,4 G,4 | C,4 A,,4 | C,4 G,4 | A,4 C,E, G,2 | !fermata!F,4 D,4 | C,4 A,,4 | D,4 B,,4 | %14
w: mo, laus|sit pa-|ren- tis|gna- * * *|to per-|en- nis|u- ni-|
 C,4 A,,4 | B,,4 C,4 | G,,4 D,4 | E,8 | !fermata!A,4 A,,4 | D,4 G,4 | C,4 G,2 E,2 | D,8 | %22
w: co, spi-|ra- mi-|ni- que|sa-|cro con-|di- gna|glo- ri _|a|
 !fermata!G,4 C,4 | G,4 F,4 | D,2 D,2 G,4 | C,4 A,,4 | !fermata!E,4 C,4 | F,4 F,4 | G,4 A,4 | %29
w: _ u-|ni De-|o at- que|tri- *|no per|cun- cta|sae- cu-|
 !fermata!E,8 | C,4 A,,2 A,,2 | E,8 | !fermata!A,8 |] %33
w: la.|Ky- ri- e|lei-|son.|

